!!!OTL: The Darktown Strutters' Ball
!!!COM: Brooks, Shelton
!!!LAR: Frey, Hugo
!! "The Darktown Strutters' Ball" by Shelton Brooks
!! from "Barbershop Memories" compiled and arranged by Hugo Frey
!! copyright 1975 by EMI Music Publ. Ltd.; p. 6; alla breve; in E- major
**kern	**kern	**kern	**kern
*Ivox	*Ivox	*Ivox	*Ivox
*M2/2	*M2/2	*M2/2	*M2/2
*E-:	*E-:	*E-:	*E-:
8.D	4r	4r	4r
16C	.	.	.
=1	=1	=1	=1
4BB-	1r	1r	1r
4D	.	.	.
8.F	.	.	.
16F	.	.	.
8.G	.	.	.
16F	.	.	.
=2	=2	=2	=2
2.A-	4r	4r	4r
.	8.F	8.B-	8.d
.	16F	16B-	16d
.	4F	4B-	4d
8.D	4r	4r	4r
16C	.	.	.
=3	=3	=3	=3
4BB-	1r	1r	1r
4D	.	.	.
4F	.	.	.
8.G	.	.	.
16F	.	.	.
=4	=4	=4	=4
2.A-;	4r	4r	4r
.	8.B-	8.c#	8.en
.	16B-	16c#	16e
.	4B-;	4d;	4f;
8.G	8.B-	8.G	8.d
16F	16B-	16F	16d
=5	=5	=5	=5
4E-	4G	4E-	4B-
4BB-	4G	4G	4e-
8.E-	8.G	8.B-	8.e-
16E-	16G	16B-	16e-
8.F	8.A-	8.c	8.d
16F	16A-	16B-	16d
=6	=6	=6	=6
4G	4B-	4e-	4e-
4BB-	4G	4c	4e-
8C	8G	8B-	8en
4.C	4.B-	4.G	4.e
=7	=7	=7	=7
8.C	8.An	8.F	8.e-
16C	16A	16F	16e-
4C	4F	4An	4e-
8.F	8.A	8.c	8.e-
16F	16A	16c	16e-
4F	4A	4d	4f
=8	=8	=8	=8
8F	8An	8e-	8g
4F	4A	4d	4f
[8A	[8A	[8c	8e-
4F]	4A]	4c]	4e-
[4G-	[4A-	4c	4e-
=9	=9	=9	=9
8F]	8A-]	8B-	8d
8r	8r	8r	8r
4F	4A-	4B-	4d
4Gn	4B-	4c	4e-
4A-	4B-	4d	4f
=10	=10	=10	=10
8A-	8c	8e-	8f
4A-	4B-	4d	4f
[8BB-	[8A-	[8c	[8f
4BB-]	4A-]	4c]	4f]
8.F	8.A-	8.c	8.d
16F	16A-	16B-	16d
=11	=11	=11	=11
4G	4B-	4e-	4B-
4E-	4G	4c	4B-
4E-	4B-	4e-	4g
4E-	4An	4c	4g-
=12	=12	=12	=12
4A-	4c	4e-	4f
4B-	4A-	4d	4f
8BB-	8A-	8c	8e-
4BB-	4A-	4B-	4d
8G	8G	8g	8r
=13	=13	=13	=13
4E-	4E-	4E-	2r
4BB-	4E-	4G	.
4E-	4G	4B-	4r
4E-	4An	4c	4f#
=14	=14	=14	=14
4E-	4B-	4e-	4g
4BB-	4G	4c	4e-
8C	8G	8B-	8en
4C	4B-	4G	4e
8C	8B-	8g	8e
=15	=15	=15	=15
4C	4An	4F	4e-
4C	4F	4A	4e-
4F	4A	4c	4e-
8.F	8.A	8.d	8.f
16F	16A	16d	16f
=16	=16	=16	=16
8F	8An	8e-	8g
4F	4A	4d	4f
[8F	[8A	[8c	[8e-
4F]	4A]	4c]	4e-]
8E-	8A-	8c	8e-
8En	8A-	8c	8en
=17	=17	=17	=17
4F	4A-	4c	4f
4AA-	4A-	4c	4e-
8C	8A-	8c	8f
4F	4A-	4c	4e-
[8F#	[8An	[8c	[8d
=18	=18	=18	=18
2.F]	2.A]	2.c]	2.d]
8.D	8.An	8.c	8.f#
16D	16A	16d	16f#
=19	=19	=19	=19
4E-	4B-	4e-	4g
8E-	8An	8d	8f#
[8E-	[8B-	[8e-	[8g
8E-]	8B-]	8e-]	8g]
4G	4Bn	4d	4fn
=20	=20	=20	=20
{4G	2.B-	2.c	2.en
2C}	.	.	.
4r	4B-	4B-	4B-
=21	=21	=21	=21
4F	4An	4c	4c
8F	8G#	8Bn	8d
[8F	[8A	[8c	[8e-
8F]	8A]	8c]	8e-]
4F	4A	4e-	4g
8F	8A	8c	8e-
=22	=22	=22	=22
4BB-	4A-	4d	4f
4BB-	4A-	4f	4d
8F	8A-	8e-	8c
4.BB-	4.A-	4.d	4.B-
=23	=23	=23	=23
2.E-	2.G	2.B-	2.e-
4E-	4G	4B-	4e-
=24	=24	=24	=24
4A-	4c	4d	4f
4A-	4c	4d	4f
8A-	8c	8e-	8f#
4.A-	4.c-	4.e-	4.f#
=25	=25	=25	=25
1E-;	1B-;	1e-;	1g;
==	==	==	==
*-	*-	*-	*-
